3Dlut.3dl
# Created with dispcalGUI 1.2.7.0
# INPUT RANGE: 8
# OUTPUT RANGE: 8
0 32 64 96 128 159 191 223 255
    0     0     0
    0     0     3
    1     0     9
    1     0    17
    1     0    29
    2     0    44
    3     0    63
    4     0    86
    5     0   112
    2     6     0
    2     6     3
    2     6     9
    2     6    18
    3     5    30
    4     4    46
    5     4    65
    6     2    87
    7     1   113
    4    16     0
    5    16     3
    5    15     9
    5    15    17
    6    15    29
    7    14    45
    7    13    63
    9    12    86
   10    10   112
    8    30     0
    9    30     3
    9    30     9
    9    30    17
   10    30    29
   11    29    45
   12    28    63
   13    27    86
   14    25   112
   13    49     1
   14    49     3
   15    50     9
   15    51    18
   16    51    30
   17    51    45
   18    50    64
   19    49    87
   20    47   114
   20    75     1
   21    76     3
   22    77     9
   23    78    18
   24    79    30
   25    79    46
   26    79    66
   28    79    90
   29    78   119
   31   111     1
   32   112     4
   32   113     9
   33   114    19
   35   116    31
   36   116    48
   37   117    69
   39   117    94
   41   117   123
   44   155     1
   45   155     4
   45   156    10
   46   158    19
   47   159    32
   49   161    49
   50   162    71
   52   162    97
   54   162   127
   61   210     2
   61   210     5
   62   210    10
   63   211    20
   64   213    33
   65   215    51
   66   217    73
   68   218   100
   71   217   131
    3     0     0
    3     0     4
    4     0     9
    4     0    18
    5     0    29
    5     0    44
    6     0    63
    7     0    86
    8     0   111
    5     6     0
    5     6     3
    5     6     9
    6     6    18
    6     5    30
    7     5    46
    8     4    64
    9     3    87
   10     2   113
    8    16     0
    8    16     3
    8    16     9
    8    16    18
    9    15    29
   10    14    45
   11    13    63
   12    12    86
   13    11   112
   11    30     0
   12    31     3
   12    31     9
   12    31    18
   13    30    29
   14    30    45
   15    28    63
   16    27    86
   17    26   112
   16    49     1
   17    50     3
   18    51     9
   19    52    18
   19    52    30
   20    51    45
   21    50    64
   22    49    87
   23    48   115
   23    76     1
   24    77     3
   25    78     9
   27    79    18
   28    80    31
   29    80    46
   30    80    66
   31    79    91
   33    79   119
   34   112     1
   35   113     4
   36   114     9
   37   115    19
   38   116    31
   40   117    48
   41   117    69
   42   117    94
   44   117   123
   48   156     1
   48   156     4
   49   157    10
   50   158    19
   51   160    32
   53   162    49
   54   162    71
   56   163    97
   58   162   127
   64   210     2
   65   210     5
   65   211    11
   66   212    20
   67   214    33
   69   216    51
   70   218    73
   72   219   100
   75   218   131
    9     1     0
    9     1     4
    9     1     9
    9     1    18
   10     1    30
   11     0    45
   12     0    63
   12     0    85
   13     0   110
   11     7     0
   10     7     3
   11     6     9
   11     6    18
   12     6    30
   13     5    45
   14     4    64
   15     3    86
   16     2   112
   13    16     0
   13    17     3
   14    17     9
   14    16    18
   14    16    29
   15    15    45
   16    14    63
   17    12    85
   19    11   111
   17    31     0
   17    31     3
   18    32     9
   18    32    18
   18    31    30
   19    30    45
   20    29    63
   22    27    86
   23    26   112
   22    50     1
   22    51     3
   23    52     9
   24    53    18
   25    53    30
   25    52    46
   26    51    65
   28    50    88
   29    49   115
   29    77     1
   30    78     3
   31    79     9
   32    80    18
   34    81    31
   35    81    47
   35    81    67
   37    80    91
   39    80   120
   40   113     1
   41   114     4
   42   115    10
   43   116    19
   44   118    32
   46   119    49
   47   119    70
   48   119    95
   50   118   124
   53   157     2
   54   157     4
   55   158    10
   56   160    19
   57   161    32
   59   163    50
   60   164    71
   62   164    98
   65   164   128
   70   212     2
   71   212     5
   72   213    11
   73   214    20
   74   216    34
   75   217    51
   77   219    74
   79   221   101
   81   219   131
   18     2     0
   17     2     4
   17     2     9
   18     1    18
   18     1    30
   19     1    45
   20     0    63
   21     0    84
   22     0   110
   19     8     0
   19     7     4
   19     7     9
   19     7    18
   20     6    29
   21     6    45
   22     4    63
   23     3    85
   24     2   111
   21    17     0
   21    17     3
   22    17     9
   22    17    18
   23    16    29
   23    15    44
   24    14    63
   26    13    85
   27    11   111
   25    31     1
   25    32     3
   26    33     9
   28    33    18
   27    32    30
   28    31    45
   29    30    64
   30    28    86
   31    27   112
   30    51     1
   31    52     3
   32    53     9
   33    54    18
   34    55    31
   34    54    46
   35    52    65
   37    51    89
   38    50   116
   38    79     1
   39    80     4
   40    81     9
   41    82    19
   43    83    31
   44    83    48
   44    83    68
   46    82    92
   48    81   121
   49   115     1
   50   116     4
   51   117    10
   52   118    19
   54   119    32
   55   120    49
   56   121    70
   58   120    96
   60   120   124
   62   159     2
   63   159     4
   64   160    10
   65   162    20
   67   163    33
   69   165    50
   71   166    72
   72   167    99
   75   166   129
   80   214     2
   80   214     5
   81   215    11
   82   216    21
   83   218    34
   85   220    52
   87   222    75
   89   223   102
   92   221   132
   29     3     0
   28     3     4
   29     2     9
   29     2    18
   29     2    29
   30     1    44
   31     1    62
   31     0    84
   32     0   109
   30     8     0
   30     8     4
   30     8     9
   31     8    17
   31     7    29
   32     6    44
   33     5    62
   34     4    84
   35     3   110
   32    18     0
   32    18     4
   33    18     9
   33    18    18
   34    17    29
   35    16    44
   36    15    62
   37    14    84
   38    12   111
   36    32     1
   37    33     4
   37    34     9
   39    34    18
   39    33    30
   39    32    45
   40    31    64
   41    29    86
   43    28   113
   41    53     1
   43    54     4
   44    55     9
   45    56    18
   48    57    32
   47    55    47
   47    54    66
   49    53    90
   51    51   117
   50    81     1
   51    82     4
   52    83    10
   54    84    19
   56    85    32
   57    86    49
   57    85    69
   59    84    93
   61    83   122
   62   117     1
   63   118     4
   64   119    10
   65   121    19
   67   122    33
   69   123    50
   70   123    71
   71   123    96
   74   122   125
   75   161     2
   75   162     5
   76   163    10
   78   164    20
   80   166    33
   82   168    51
   84   169    73
   86   170   100
   88   168   129
   93   217     2
   94   217     5
   95   218    11
   96   220    21
   97   221    35
   99   223    53
  101   225    75
  104   226   103
  106   224   133
   42     4     1
   42     4     4
   43     4     9
   43     3    17
   43     3    29
   44     2    43
   44     1    62
   45     1    84
   46     1   110
   43     9     1
   44     9     4
   44     9     9
   45     9    17
   45     8    29
   46     7    44
   47     6    62
   48     5    84
   49     3   110
   46    19     1
   46    19     4
   47    19     9
   48    19    18
   48    18    29
   49    17    44
   50    16    62
   51    15    85
   52    13   111
   50    33     1
   51    34     4
   52    35     9
   53    35    18
   54    34    30
   54    34    46
   55    32    64
   56    31    87
   58    29   114
   56    54     1
   58    55     4
   59    57     9
   61    57    19
   62    58    32
   63    57    48
   64    56    67
   65    55    91
   67    53   119
   66    83     1
   67    85     4
   69    86    10
   71    87    19
   72    88    32
   75    89    50
   75    88    70
   76    86    94
   78    85   123
   78   120     2
   79   121     5
   80   122    10
   82   123    20
   84   125    33
   86   126    50
   87   126    73
   88   126    98
   91   125   126
   92   164     2
   92   165     5
   93   166    11
   95   168    21
   97   170    34
  100   171    52
  102   173    74
  104   173   102
  107   171   128
  112   221     3
  112   221     6
  113   222    12
  114   224    22
  116   225    36
  118   227    54
  121   229    77
  124   230   105
  126   227   134
   59     5     1
   59     5     4
   60     5     9
   60     4    18
   60     4    29
   61     3    43
   61     2    62
   62     2    84
   63     1   110
   60    10     1
   61    10     4
   62    11     9
   62    10    18
   63    10    29
   63     9    44
   64     7    62
   65     6    84
   67     5   111
   63    20     1
   63    20     4
   65    20     9
   66    20    18
   66    20    30
   67    19    45
   68    18    63
   69    16    85
   71    14   112
   68    35     1
   69    36     4
   70    36     9
   72    36    18
   73    36    31
   74    36    47
   74    34    65
   76    33    88
   77    31   116
   75    57     1
   76    58     4
   78    59    10
   80    59    19
   81    60    32
   83    59    49
   84    58    68
   85    57    92
   87    56   120
   85    86     2
   87    87     5
   88    88    10
   90    90    20
   92    90    33
   94    91    50
   95    90    71
   96    89    96
   99    88   125
   97   122     2
   99   124     5
  100   125    11
  102   126    20
  104   128    34
  107   129    51
  111   131    74
  111   129    99
  113   128   126
  113   168     2
  114   169     5
  116   170    12
  118   172    21
  120   174    35
  123   176    53
  126   177    76
  129   178   103
  132   176   128
  135   226     3
  135   227     6
  137   228    13
  138   229    23
  140   231    37
  142   232    55
  144   233    78
  147   233   106
  149   230   134
   78     6     1
   79     6     4
   80     6    10
   81     6    18
   81     5    30
   82     5    44
   83     4    62
   84     3    85
   85     2   112
   80    11     1
   81    12     4
   82    12    10
   83    12    18
   84    11    30
   85    10    45
   86     9    63
   87     8    86
   89     7   113
   83    21     1
   84    22     4
   86    22    10
   87    22    19
   88    22    31
   89    21    46
   90    20    65
   92    18    88
   94    17   115
   89    37     1
   90    38     4
   92    38    10
   94    39    19
   96    39    32
   97    38    48
   98    37    67
   99    36    91
  102    34   118
   98    60     1
   99    61     4
  101    61    10
  103    62    19
  105    62    32
  107    62    50
  108    61    70
  110    60    94
  112    58   122
  109    90     2
  110    91     5
  112    92    11
  114    92    20
  116    93    33
  119    93    51
  121    93    72
  122    92    98
  124    90   126
  122   126     2
  123   127     5
  125   128    11
  127   130    21
  130   131    34
  133   132    52
  136   133    75
  138   132   101
  139   131   129
  139   172     3
  141   173     6
  142   175    12
  145   177    22
  148   179    36
  151   180    54
  154   182    77
  159   184   106
  159   181   129
  162   231     4
  163   231     7
  164   232    13
  166   233    23
  168   235    37
  170   236    56
  173   237    79
  176   238   108
  180   237   137
  103     7     1
  104     8     4
  105     8    10
  106     8    19
  107     7    31
  108     7    46
  109     6    65
  111     5    88
  113     4   115
  105    13     1
  106    14     4
  108    14    10
  109    14    19
  111    14    32
  112    13    47
  113    12    66
  115    11    89
  118     9   116
  109    23     1
  110    24     4
  112    24    10
  115    25    20
  116    24    32
  117    24    48
  119    23    68
  121    22    91
  123    20   118
  117    40     1
  118    40     4
  120    41    10
  122    41    19
  124    41    33
  126    41    50
  127    40    70
  129    39    94
  132    37   122
  127    63     2
  128    64     5
  130    64    11
  132    65    20
  134    65    33
  137    65    51
  139    65    72
  140    63    97
  142    62   125
  138    93     2
  139    93     5
  141    94    11
  143    95    21
  146    96    34
  148    96    51
  151    96    73
  153    96   100
  154    93   129
  151   129     2
  152   130     6
  154   132    12
  157   133    22
  160   135    35
  163   136    53
  167   136    76
  169   136   103
  170   134   132
  171   178     3
  172   179     7
  174   180    13
  177   182    23
  180   184    37
  183   185    55
  185   186    79
  188   186   107
  188   183   132
  197   238     4
  198   238     8
  199   239    14
  200   239    25
  202   240    39
  204   242    58
  206   242    82
  209   244   110
  220   250   147
