3Dlut.3dl
# Created with dispcalGUI 1.2.7.0
# INPUT RANGE: 8
# OUTPUT RANGE: 8
0 16 32 48 64 80 96 112 128 143 159 175 191 207 223 239 255
    0     0     0
    0     0     1
    0     0     3
    0     0     6
    1     0     9
    1     0    13
    1     0    17
    1     0    22
    1     0    29
    2     0    36
    2     0    44
    2     0    53
    3     0    63
    3     0    74
    4     0    86
    4     0    98
    5     0   112
    1     3     0
    1     3     2
    1     3     3
    1     3     6
    1     3     9
    1     3    13
    2     2    18
    2     2    24
    2     2    30
    3     2    37
    3     1    46
    4     1    55
    4     1    64
    4     1    75
    5     0    87
    5     0    99
    6     0   112
    2     6     0
    2     6     2
    2     6     3
    2     6     6
    2     6     9
    2     6    13
    2     6    18
    3     5    23
    3     5    30
    4     5    37
    4     4    46
    4     4    55
    5     4    65
    6     3    76
    6     2    87
    6     2   100
    7     1   113
    3    11     0
    3    10     2
    3    10     3
    3    10     6
    3    10     9
    3    10    13
    4    10    18
    4    10    23
    4     9    30
    5     9    37
    5     9    45
    6     8    54
    6     8    64
    7     7    75
    7     6    87
    8     6    99
    9     5   113
    4    16     0
    5    16     2
    5    16     3
    5    16     6
    5    15     9
    5    15    13
    5    15    17
    5    15    23
    6    15    29
    6    15    37
    7    14    45
    7    14    54
    7    13    63
    8    13    74
    9    12    86
    9    11    98
   10    10   112
    6    22     0
    6    22     2
    6    22     3
    7    22     6
    7    22     9
    7    22    13
    7    22    17
    7    22    23
    7    22    29
    8    21    36
    9    21    45
    9    20    53
    9    20    63
   10    19    74
   10    19    85
   11    18    98
   12    17   112
    8    30     0
    8    30     2
    9    30     3
    9    30     6
    9    30     9
    9    30    13
    9    30    17
    9    30    23
   10    30    29
   10    30    36
   11    29    45
   11    29    53
   12    28    63
   12    27    74
   13    27    86
   13    26    98
   14    25   112
   11    39     0
   11    39     2
   11    39     3
   11    39     6
   12    40     9
   12    40    13
   12    40    17
   12    40    23
   13    40    29
   13    39    37
   13    39    45
   14    39    54
   14    38    64
   15    37    75
   15    37    86
   16    36    99
   17    35   113
   13    49     1
   13    49     2
   14    49     3
   14    50     6
   15    50     9
   15    51    13
   15    51    18
   16    51    23
   16    51    30
   16    51    37
   17    51    45
   17    50    54
   18    50    64
   18    49    75
   19    49    87
   19    48   100
   20    47   114
   16    61     1
   17    61     2
   17    62     3
   17    62     6
   18    63     9
   18    63    13
   19    64    18
   19    64    23
   20    64    30
   20    64    37
   21    64    45
   21    64    55
   22    63    65
   22    63    76
   23    62    89
   23    62   102
   24    62   116
   20    75     1
   21    76     2
   21    76     3
   21    77     6
   22    77     9
   23    78    13
   23    78    18
   24    79    24
   24    79    30
   25    79    38
   25    79    46
   26    79    55
   26    79    66
   27    79    78
   28    79    90
   28    78   104
   29    78   119
   25    92     1
   25    93     2
   26    93     3
   26    93     6
   27    94     9
   27    95    13
   28    95    18
   29    96    24
   29    96    31
   30    97    38
   30    97    47
   31    97    57
   32    97    67
   32    97    79
   33    97    92
   34    97   106
   35    96   121
   31   111     1
   31   112     2
   32   112     4
   32   112     6
   32   113     9
   33   114    13
   33   114    19
   34   115    24
   35   116    31
   35   116    39
   36   116    48
   37   116    58
   37   117    69
   38   117    81
   39   117    94
   40   117   108
   41   117   123
   38   133     1
   38   133     2
   38   133     4
   38   133     6
   39   134     9
   39   135    14
   40   135    19
   40   136    25
   41   136    32
   42   137    40
   42   138    49
   43   138    59
   43   138    70
   44   138    82
   45   138    95
   46   138   110
   47   138   125
   44   155     1
   44   155     2
   45   155     4
   45   156     6
   45   156    10
   46   157    14
   46   158    19
   47   158    25
   47   159    32
   48   160    40
   49   161    49
   50   161    59
   50   162    71
   51   162    83
   52   162    97
   53   162   112
   54   162   127
   52   181     2
   52   181     3
   52   181     4
   52   181     7
   53   181    10
   53   182    14
   54   183    19
   54   184    26
   55   185    32
   56   185    41
   57   186    50
   57   187    60
   58   188    71
   59   188    84
   60   189    98
   61   189   113
   62   188   128
   61   210     2
   61   210     3
   61   210     5
   61   210     7
   62   210    10
   62   211    15
   63   211    20
   63   212    26
   64   213    33
   64   214    41
   65   215    51
   66   216    61
   66   217    73
   67   217    85
   68   218   100
   70   218   115
   71   217   131
    1     0     0
    1     0     2
    2     0     4
    2     0     6
    2     0     9
    2     0    13
    2     0    17
    2     0    23
    3     0    29
    3     0    36
    4     0    44
    4     0    53
    4     0    63
    5     0    74
    5     0    86
    5     0    99
    6     0   111
    2     3     0
    2     3     2
    2     3     3
    2     3     6
    3     3     9
    3     3    13
    3     3    18
    3     2    24
    4     2    30
    4     2    37
    5     2    46
    5     1    55
    5     1    64
    6     1    75
    6     1    87
    7     0    99
    7     0   112
    3     6     0
    3     6     2
    3     6     3
    3     6     6
    3     6     9
    4     6    13
    4     6    18
    4     5    24
    5     5    30
    5     5    37
    5     5    46
    6     4    55
    7     4    65
    7     3    75
    8     3    87
    8     2    99
    9     2   113
    4    11     0
    5    10     2
    5    10     3
    4    10     6
    4    10     9
    5    10    13
    5    10    18
    6    10    23
    6     9    30
    6     9    37
    7     9    45
    7     8    54
    8     8    64
    8     7    75
    9     7    86
    9     6    99
   10     5   113
    6    16     0
    6    16     2
    6    16     3
    6    16     6
    6    16     9
    6    16    13
    6    15    18
    7    15    23
    7    15    29
    8    15    37
    8    14    45
    9    14    54
    9    13    63
   10    13    74
   10    12    86
   11    11    98
   12    10   112
    8    22     0
    8    23     2
    8    23     3
    8    23     6
    8    22     9
    8    22    13
    8    22    18
    9    22    23
    9    22    29
   10    21    36
   10    21    45
   10    21    53
   11    20    63
   12    19    74
   12    19    85
   13    18    98
   14    17   112
   10    30     0
   10    30     2
   10    30     3
   10    30     6
   11    31     9
   11    31    13
   11    30    18
   11    30    23
   11    30    29
   12    30    37
   12    29    45
   13    29    54
   13    28    63
   14    28    74
   14    27    86
   15    26    98
   16    25   112
   12    39     0
   12    39     2
   13    39     3
   13    40     6
   13    40     9
   14    40    13
   14    40    18
   14    40    23
   14    40    30
   14    40    37
   15    39    45
   15    39    54
   16    38    64
   16    38    75
   17    37    86
   18    36    99
   18    35   113
   15    49     1
   15    49     2
   15    50     3
   16    50     6
   16    51     9
   17    51    13
   17    51    18
   17    51    23
   18    51    30
   18    51    37
   18    51    45
   19    51    54
   19    50    64
   20    49    75
   20    49    87
   21    48   101
   22    48   114
   18    61     1
   18    62     2
   19    62     3
   19    62     6
   19    63     9
   20    63    13
   21    64    18
   21    64    23
   22    64    30
   22    65    37
   22    64    46
   23    64    55
   23    64    65
   24    63    76
   24    63    89
   25    62   102
   26    62   117
   22    76     1
   22    76     2
   22    76     3
   23    77     6
   23    78     9
   24    78    13
   25    79    18
   25    79    24
   26    80    30
   26    80    38
   27    80    46
   27    80    56
   28    79    66
   29    79    78
   29    79    90
   30    79   104
   31    78   119
   27    93     1
   27    93     2
   27    93     3
   28    94     6
   28    94     9
   29    95    13
   30    96    18
   30    96    24
   31    97    31
   32    97    39
   32    97    47
   33    97    57
   33    97    68
   34    97    79
   35    97    92
   36    97   106
   37    97   121
   33   112     1
   33   112     2
   33   112     4
   34   113     6
   34   113     9
   35   114    14
   35   115    19
   36   115    25
   36   116    31
   37   116    39
   38   117    48
   38   117    58
   39   117    69
   40   117    81
   41   117    94
   41   117   108
   43   117   123
   39   133     1
   39   133     2
   40   133     4
   40   134     6
   40   134    10
   41   135    14
   41   136    19
   42   136    25
   42   137    32
   43   137    40
   44   138    49
   45   138    59
   45   138    70
   46   139    82
   47   139    96
   48   139   110
   49   139   125
   46   156     1
   46   156     2
   46   156     4
   46   156     6
   47   157    10
   47   157    14
   48   158    19
   48   159    25
   49   160    32
   50   160    40
   51   161    49
   51   162    59
   52   162    71
   53   162    83
   54   162    97
   55   163   112
   56   162   127
   53   181     2
   54   181     3
   54   181     4
   54   181     7
   54   182    10
   55   182    14
   55   183    19
   56   184    26
   57   185    33
   58   186    41
   58   187    50
   59   188    60
   60   188    72
   61   189    84
   62   189    98
   63   189   113
   64   188   128
   63   210     2
   63   210     3
   63   210     5
   63   210     7
   63   211    10
   64   211    15
   64   212    20
   65   213    26
   66   214    33
   66   215    42
   67   215    51
   68   216    61
   68   217    73
   69   218    86
   70   218   100
   72   219   116
   73   218   131
    3     0     0
    3     0     2
    3     0     4
    3     0     6
    4     0     9
    4     0    13
    4     0    18
    4     0    23
    5     0    29
    5     0    36
    5     0    44
    6     0    53
    6     0    63
    6     0    74
    7     0    86
    7     0    98
    8     0   111
    4     3     0
    4     3     2
    4     3     3
    4     3     6
    4     3     9
    5     3    13
    5     3    18
    5     2    24
    6     2    30
    6     2    37
    6     2    46
    7     1    55
    7     1    64
    8     1    75
    8     1    86
    8     0    99
    9     0   112
    5     6     0
    5     6     2
    5     6     3
    5     6     6
    5     6     9
    5     6    13
    6     6    18
    6     6    23
    6     5    30
    7     5    37
    7     5    46
    8     4    55
    8     4    64
    9     3    75
    9     3    87
   10     2    99
   10     2   113
    6    11     0
    6    11     2
    6    10     3
    6    10     6
    6    10     9
    6    10    13
    7    10    18
    7    10    23
    8    10    30
    8     9    37
    8     9    45
    9     8    54
    9     8    64
   10     7    75
   11     7    86
   11     6    99
   12     5   113
    8    16     0
    8    16     2
    8    16     3
    8    16     6
    8    16     9
    8    16    13
    8    16    18
    9    15    23
    9    15    29
    9    15    37
   10    14    45
   10    14    54
   11    13    63
   11    13    74
   12    12    86
   13    11    98
   13    11   112
    9    23     0
    9    23     2
   10    23     3
   10    23     6
   10    23     9
   10    23    13
   10    22    18
   10    22    23
   11    22    29
   11    22    37
   12    21    45
   12    21    53
   13    20    63
   13    20    74
   14    19    85
   15    18    98
   15    17   112
   11    30     0
   12    30     2
   12    31     3
   12    31     6
   12    31     9
   12    31    13
   12    31    18
   13    31    23
   13    30    29
   13    30    37
   14    30    45
   15    29    54
   15    28    63
   15    28    74
   16    27    86
   17    26    98
   17    26   112
   14    39     0
   14    39     2
   14    40     3
   15    40     6
   15    40     9
   15    40    13
   15    40    18
   16    40    23
   16    40    30
   16    40    37
   17    40    45
   17    39    54
   18    38    64
   18    38    75
   19    37    86
   19    36    99
   20    36   113
   16    49     1
   17    50     2
   17    50     3
   17    50     6
   18    51     9
   18    51    13
   19    52    18
   19    52    23
   19    52    30
   20    52    37
   20    51    45
   20    51    54
   21    50    64
   21    50    76
   22    49    87
   23    48   101
   23    48   115
   19    62     1
   20    62     2
   20    62     3
   21    63     6
   21    63     9
   22    64    13
   22    64    18
   23    65    24
   23    65    30
   24    65    37
   24    65    46
   24    64    55
   25    64    65
   25    64    77
   26    63    89
   27    63   103
   28    62   117
   23    76     1
   24    76     2
   24    77     3
   25    77     6
   25    78     9
   26    79    13
   27    79    18
   27    80    24
   28    80    31
   28    80    38
   29    80    46
   29    80    56
   30    80    66
   30    80    78
   31    79    91
   32    79   105
   33    79   119
   28    93     1
   29    93     2
   29    94     3
   30    94     6
   30    95     9
   31    96    13
   31    96    18
   32    97    24
   33    97    31
   33    98    39
   34    98    47
   34    98    57
   35    98    68
   36    98    80
   37    98    92
   37    97   107
   38    97   121
   34   112     1
   35   112     2
   35   113     4
   35   113     6
   36   114     9
   36   114    14
   37   115    19
   38   116    25
   38   116    31
   39   117    39
   40   117    48
   40   117    58
   41   117    69
   42   117    81
   42   117    94
   43   117   108
   44   117   123
   41   133     1
   41   133     2
   41   134     4
   42   134     6
   42   135    10
   43   135    14
   43   136    19
   44   137    25
   44   137    32
   45   138    40
   46   138    49
   46   139    59
   47   139    70
   48   139    82
   49   139    96
   50   139   110
   51   139   125
   48   156     1
   48   156     3
   48   156     4
   48   156     6
   49   157    10
   49   158    14
   50   158    19
   50   159    25
   51   160    32
   52   161    40
   53   162    49
   53   162    59
   54   162    71
   55   163    83
   56   163    97
   57   163   112
   58   162   127
   55   181     2
   55   181     3
   56   181     4
   56   182     7
   56   182    10
   57   183    14
   57   184    20
   58   185    26
   59   185    33
   60   186    41
   60   187    50
   61   188    60
   62   189    72
   63   189    84
   64   190    99
   65   190   114
   66   189   129
   64   210     2
   65   210     3
   65   210     5
   65   211     7
   65   211    11
   66   212    15
   66   212    20
   67   213    26
   67   214    33
   68   215    42
   69   216    51
   70   217    61
   70   218    73
   71   218    86
   72   219   100
   74   220   116
   75   218   131
    6     1     0
    6     1     2
    6     1     4
    6     1     6
    6     1     9
    6     0    13
    6     0    18
    7     0    23
    7     0    30
    7     0    37
    8     0    45
    8     0    53
    8     0    63
    9     0    74
    9     0    85
   10     0    98
   10     0   111
    7     4     0
    7     3     2
    7     3     3
    7     3     6
    7     3     9
    7     3    13
    7     3    18
    8     3    24
    8     2    30
    8     2    37
    9     2    46
    9     2    54
   10     1    64
   10     1    75
   11     1    86
   11     1    99
