3Dlut.3dl
# Created with dispcalGUI 1.2.7.0
# INPUT RANGE: 8
# OUTPUT RANGE: 8
0 64 128 191 255
    0     0     0
    1     0     9
    1     0    29
    3     0    63
    5     0   112
    4    16     0
    5    15     9
    6    15    29
    7    13    63
   10    10   112
   13    49     1
   15    50     9
   16    51    30
   18    50    64
   20    47   114
   31   111     1
   32   113     9
   35   116    31
   37   117    69
   41   117   123
   61   210     2
   62   210    10
   64   213    33
   66   217    73
   71   217   131
    9     1     0
    9     1     9
   10     1    30
   12     0    63
   13     0   110
   13    16     0
   14    17     9
   14    16    29
   16    14    63
   19    11   111
   22    50     1
   23    52     9
   25    53    30
   26    51    65
   29    49   115
   40   113     1
   42   115    10
   44   118    32
   47   119    70
   50   118   124
   70   212     2
   72   213    11
   74   216    34
   77   219    74
   81   219   131
   29     3     0
   29     2     9
   29     2    29
   31     1    62
   32     0   109
   32    18     0
   33    18     9
   34    17    29
   36    15    62
   38    12   111
   41    53     1
   44    55     9
   48    57    32
   47    54    66
   51    51   117
   62   117     1
   64   119    10
   67   122    33
   70   123    71
   74   122   125
   93   217     2
   95   218    11
   97   221    35
  101   225    75
  106   224   133
   59     5     1
   60     5     9
   60     4    29
   61     2    62
   63     1   110
   63    20     1
   65    20     9
   66    20    30
   68    18    63
   71    14   112
   75    57     1
   78    59    10
   81    60    32
   84    58    68
   87    56   120
   97   122     2
  100   125    11
  104   128    34
  111   131    74
  113   128   126
  135   226     3
  137   228    13
  140   231    37
  144   233    78
  149   230   134
  103     7     1
  105     8    10
  107     7    31
  109     6    65
  113     4   115
  109    23     1
  112    24    10
  116    24    32
  119    23    68
  123    20   118
  127    63     2
  130    64    11
  134    65    33
  139    65    72
  142    62   125
  151   129     2
  154   132    12
  160   135    35
  167   136    76
  170   134   132
  197   238     4
  199   239    14
  202   240    39
  206   242    82
  220   250   147
